X: 294
T:What Can The Matter Be.. JaW.293
T:Oh,Dear, What Can The... JaW.293
M:6/8
Q:100
S:James Winder Ms, Lancashire, 1835-41
R:Air
O:England
A:Wyresdale,Lancashire
N:..Johnny Stops Long At The Fair.
H:1/8
Z:vmp.Chris Partington, Aug 2004
K:C
d3d3|dBg dBG|c3c3|cAB cBA|!
d3d3|dBg dcB|Eed cBA|G3G3:|!
|:d|dBc dBc|dBg dBG|cAB cAB|\
"not clear from here"cBA GFE|!
dBc dBc|dBd dBG|Eed cBA|G3zz2:|]
